packages/dnb-design-system-portal/src/docs/quickguide-designer/assets/extents.svg

<svg fill="none" height="608" viewBox="0 0 672 608" width="672" xmlns="http://www.w3.org/2000/svg"><path d="m0 56h672v336h-672z" fill="#eee"/><path d="m0 0h672v24h-672z" fill="#dee1e6"/><circle cx="14" cy="12" fill="#c4c4c4" fill-opacity=".5" r="6"/><circle cx="30" cy="12" fill="#c4c4c4" fill-opacity=".5" r="6"/><circle cx="46" cy="12" fill="#c4c4c4" fill-opacity=".5" r="6"/><path d="m0 24h672v32h-672z" fill="#e5e5e5"/><path d="m0 24h672v32h-672z" fill="#fff"/><path d="m56 32h592v16h-592z" fill="#f1f3f4"/><path d="m0 56h672v1h-672z" fill="#e5e5e5"/><path d="m0 56h672v1h-672z" fill="#d3cfcf"/><path clip-rule="evenodd" d="m22.7803 36.0303c.2929-.2929.2929-.7677 0-1.0606s-.7677-.2929-1.0606 0l-4.5 4.5c-.2929.2929-.2929.7677 0 1.0606l4.5 4.5c.2929.2929.7677.2929 1.0606 0s.2929-.7677 0-1.0606l-3.9696-3.9697z" fill="#000" fill-rule="evenodd" opacity=".3"/><path clip-rule="evenodd" d="m39.2803 34.9697c-.2929-.2929-.7677-.2929-1.0606 0s-.2929.7677 0 1.0606l3.9696 3.9697-3.9696 3.9697c-.2929.2929-.2929.7677 0 1.0606s.7677.2929 1.0606 0l4.5-4.5c.2929-.2929.2929-.7677 0-1.0606z" fill="#000" fill-rule="evenodd" opacity=".1"/><g fill="#c4c4c4"><path d="m240 100h192v56h-192z"/><path d="m240 84h192v8h-192z"/><path d="m240 72h192v8h-192z"/><path d="m240 208h192v56h-192z"/><path d="m240 192h192v8h-192z"/><path d="m240 180h192v8h-192z"/><path d="m240 316h192v56h-192z"/><path d="m240 300h192v8h-192z"/><path d="m240 288h192v8h-192z"/></g><path d="m0 488h672v120h-672z" fill="#eee"/><path d="m0 432h672v24h-672z" fill="#dee1e6"/><circle cx="14" cy="444" fill="#c4c4c4" fill-opacity=".5" r="6"/><circle cx="30" cy="444" fill="#c4c4c4" fill-opacity=".5" r="6"/><circle cx="46" cy="444" fill="#c4c4c4" fill-opacity=".5" r="6"/><path d="m0 456h672v32h-672z" fill="#e5e5e5"/><path d="m0 456h672v32h-672z" fill="#fff"/><path d="m56 464h592v16h-592z" fill="#f1f3f4"/><path d="m0 488h672v1h-672z" fill="#e5e5e5"/><path d="m0 488h672v1h-672z" fill="#d3cfcf"/><path clip-rule="evenodd" d="m22.7803 468.03c.2929-.293.2929-.767 0-1.06s-.7677-.293-1.0606 0l-4.5 4.5c-.2929.293-.2929.767 0 1.06l4.5 4.5c.2929.293.7677.293 1.0606 0s.2929-.767 0-1.06l-3.9696-3.97z" fill="#000" fill-rule="evenodd" opacity=".3"/><path clip-rule="evenodd" d="m39.2803 466.97c-.2929-.293-.7677-.293-1.0606 0s-.2929.767 0 1.06l3.9696 3.97-3.9696 3.97c-.2929.293-.2929.767 0 1.06s.7677.293 1.0606 0l4.5-4.5c.2929-.293.2929-.767 0-1.06z" fill="#000" fill-rule="evenodd" opacity=".1"/><path d="m240 532h192v56h-192z" fill="#c4c4c4"/><path d="m240 516h192v8h-192z" fill="#c4c4c4"/><path d="m240 504h192v8h-192z" fill="#c4c4c4"/><path d="m24 532h192v56h-192z" fill="#c4c4c4"/><path d="m24 516h192v8h-192z" fill="#c4c4c4"/><path d="m24 504h192v8h-192z" fill="#c4c4c4"/><path d="m456 532h192v56h-192z" fill="#c4c4c4"/><path d="m456 516h192v8h-192z" fill="#c4c4c4"/><path d="m456 504h192v8h-192z" fill="#c4c4c4"/><path d="m336.776 132v-11.312l-3.52.096v.992h2.256v10.224z" fill="#000"/><path d="m340.888 244v-1.104h-5.68c2.624-2.4 4.976-4.704 4.976-7.152 0-1.472-.528-3.184-3.248-3.184-1.584 0-2.496.56-2.976.88l.496.912c.272-.16 1.088-.672 2.368-.672 1.328 0 2.08.512 2.08 2.208 0 2.464-4.944 6.672-5.328 7.072v1.04z" fill="#000"/><path d="m340.024 353.04c0-1.744-1.424-2.752-2.624-3.056.88-.256 2.096-1.248 2.096-2.784 0-1.744-1.264-2.64-3.104-2.64-1.088 0-1.872.288-2.368.512l.384.928s.832-.352 1.92-.352c1.024 0 1.952.384 1.952 1.664 0 1.248-1.216 2.16-2.608 2.272v1.056c1.792.112 3.104.944 3.104 2.416 0 1.728-1.28 1.952-2.56 1.952-1.12 0-2.032-.256-2.432-.384l-.304 1.056s1.008.464 2.896.464c2.048 0 3.648-.752 3.648-3.104z" fill="#000"/><path d="m120.776 564v-11.312l-3.52.096v.992h2.256v10.224z" fill="#000"/><path d="m340.888 564v-1.104h-5.68c2.624-2.4 4.976-4.704 4.976-7.152 0-1.472-.528-3.184-3.248-3.184-1.584 0-2.496.56-2.976.88l.496.912c.272-.16 1.088-.672 2.368-.672 1.328 0 2.08.512 2.08 2.208 0 2.464-4.944 6.672-5.328 7.072v1.04z" fill="#000"/><path d="m556.024 561.04c0-1.744-1.424-2.752-2.624-3.056.88-.256 2.096-1.248 2.096-2.784 0-1.744-1.264-2.64-3.104-2.64-1.088 0-1.872.288-2.368.512l.384.928s.832-.352 1.92-.352c1.024 0 1.952.384 1.952 1.664 0 1.248-1.216 2.16-2.608 2.272v1.056c1.792.112 3.104.944 3.104 2.416 0 1.728-1.28 1.952-2.56 1.952-1.12 0-2.032-.256-2.432-.384l-.304 1.056s1.008.464 2.896.464c2.048 0 3.648-.752 3.648-3.104z" fill="#000"/></svg>

<svg width="672" height="608" viewBox="0 0 672 608" fill="none" xmlns="http://www.w3.org/2000/svg">
<path d="M0 56H672V392H0V56Z" fill="#EEEEEE"/>
<path d="M0 0H672V24H0V0Z" fill="#DEE1E6"/>
<circle cx="14" cy="12" r="6" fill="#C4C4C4" fill-opacity="0.5"/>
<circle cx="30" cy="12" r="6" fill="#C4C4C4" fill-opacity="0.5"/>
<circle cx="46" cy="12" r="6" fill="#C4C4C4" fill-opacity="0.5"/>
<rect y="24" width="672" height="32" fill="#E5E5E5"/>
<rect y="24" width="672" height="32" fill="white"/>
<rect x="56" y="32" width="592" height="16" fill="#F1F3F4"/>
<rect y="56" width="672" height="1" fill="#E5E5E5"/>
<rect y="56" width="672" height="1" fill="#D3CFCF"/>
<g opacity="0.3">
<path fill-rule="evenodd" clip-rule="evenodd" d="M22.7803 36.0303C23.0732 35.7374 23.0732 35.2626 22.7803 34.9697C22.4874 34.6768 22.0126 34.6768 21.7197 34.9697L17.2197 39.4697C16.9268 39.7626 16.9268 40.2374 17.2197 40.5303L21.7197 45.0303C22.0126 45.3232 22.4874 45.3232 22.7803 45.0303C23.0732 44.7374 23.0732 44.2626 22.7803 43.9697L18.8107 40L22.7803 36.0303Z" fill="black"/>
</g>
<g opacity="0.1">
<path fill-rule="evenodd" clip-rule="evenodd" d="M39.2803 34.9697C38.9874 34.6768 38.5126 34.6768 38.2197 34.9697C37.9268 35.2626 37.9268 35.7374 38.2197 36.0303L42.1893 40L38.2197 43.9697C37.9268 44.2626 37.9268 44.7374 38.2197 45.0303C38.5126 45.3232 38.9874 45.3232 39.2803 45.0303L43.7803 40.5303C44.0732 40.2374 44.0732 39.7626 43.7803 39.4697L39.2803 34.9697Z" fill="black"/>
</g>
<rect x="240" y="100" width="192" height="56" fill="#C4C4C4"/>
<rect x="240" y="84" width="192" height="8" fill="#C4C4C4"/>
<rect x="240" y="72" width="192" height="8" fill="#C4C4C4"/>
<rect x="240" y="208" width="192" height="56" fill="#C4C4C4"/>
<rect x="240" y="192" width="192" height="8" fill="#C4C4C4"/>
<rect x="240" y="180" width="192" height="8" fill="#C4C4C4"/>
<rect x="240" y="316" width="192" height="56" fill="#C4C4C4"/>
<rect x="240" y="300" width="192" height="8" fill="#C4C4C4"/>
<rect x="240" y="288" width="192" height="8" fill="#C4C4C4"/>
<path d="M0 488H672V608H0V488Z" fill="#EEEEEE"/>
<path d="M0 432H672V456H0V432Z" fill="#DEE1E6"/>
<circle cx="14" cy="444" r="6" fill="#C4C4C4" fill-opacity="0.5"/>
<circle cx="30" cy="444" r="6" fill="#C4C4C4" fill-opacity="0.5"/>
<circle cx="46" cy="444" r="6" fill="#C4C4C4" fill-opacity="0.5"/>
<rect y="456" width="672" height="32" fill="#E5E5E5"/>
<rect y="456" width="672" height="32" fill="white"/>
<rect x="56" y="464" width="592" height="16" fill="#F1F3F4"/>
<rect y="488" width="672" height="1" fill="#E5E5E5"/>
<rect y="488" width="672" height="1" fill="#D3CFCF"/>
<g opacity="0.3">
<path fill-rule="evenodd" clip-rule="evenodd" d="M22.7803 468.03C23.0732 467.737 23.0732 467.263 22.7803 466.97C22.4874 466.677 22.0126 466.677 21.7197 466.97L17.2197 471.47C16.9268 471.763 16.9268 472.237 17.2197 472.53L21.7197 477.03C22.0126 477.323 22.4874 477.323 22.7803 477.03C23.0732 476.737 23.0732 476.263 22.7803 475.97L18.8107 472L22.7803 468.03Z" fill="black"/>
</g>
<g opacity="0.1">
<path fill-rule="evenodd" clip-rule="evenodd" d="M39.2803 466.97C38.9874 466.677 38.5126 466.677 38.2197 466.97C37.9268 467.263 37.9268 467.737 38.2197 468.03L42.1893 472L38.2197 475.97C37.9268 476.263 37.9268 476.737 38.2197 477.03C38.5126 477.323 38.9874 477.323 39.2803 477.03L43.7803 472.53C44.0732 472.237 44.0732 471.763 43.7803 471.47L39.2803 466.97Z" fill="black"/>
</g>
<rect x="240" y="532" width="192" height="56" fill="#C4C4C4"/>
<rect x="240" y="516" width="192" height="8" fill="#C4C4C4"/>
<rect x="240" y="504" width="192" height="8" fill="#C4C4C4"/>
<rect x="24" y="532" width="192" height="56" fill="#C4C4C4"/>
<rect x="24" y="516" width="192" height="8" fill="#C4C4C4"/>
<rect x="24" y="504" width="192" height="8" fill="#C4C4C4"/>
<rect x="456" y="532" width="192" height="56" fill="#C4C4C4"/>
<rect x="456" y="516" width="192" height="8" fill="#C4C4C4"/>
<rect x="456" y="504" width="192" height="8" fill="#C4C4C4"/>
<path d="M336.776 132V120.688L333.256 120.784V121.776H335.512V132H336.776Z" fill="black"/>
<path d="M340.888 244V242.896H335.208C337.832 240.496 340.184 238.192 340.184 235.744C340.184 234.272 339.656 232.56 336.936 232.56C335.352 232.56 334.44 233.12 333.96 233.44L334.456 234.352C334.728 234.192 335.544 233.68 336.824 233.68C338.152 233.68 338.904 234.192 338.904 235.888C338.904 238.352 333.96 242.56 333.576 242.96V244H340.888Z" fill="black"/>
<path d="M340.024 353.04C340.024 351.296 338.6 350.288 337.4 349.984C338.28 349.728 339.496 348.736 339.496 347.2C339.496 345.456 338.232 344.56 336.392 344.56C335.304 344.56 334.52 344.848 334.024 345.072L334.408 346C334.408 346 335.24 345.648 336.328 345.648C337.352 345.648 338.28 346.032 338.28 347.312C338.28 348.56 337.064 349.472 335.672 349.584V350.64C337.464 350.752 338.776 351.584 338.776 353.056C338.776 354.784 337.496 355.008 336.216 355.008C335.096 355.008 334.184 354.752 333.784 354.624L333.48 355.68C333.48 355.68 334.488 356.144 336.376 356.144C338.424 356.144 340.024 355.392 340.024 353.04Z" fill="black"/>
<path d="M120.776 564V552.688L117.256 552.784V553.776H119.512V564H120.776Z" fill="black"/>
<path d="M340.888 564V562.896H335.208C337.832 560.496 340.184 558.192 340.184 555.744C340.184 554.272 339.656 552.56 336.936 552.56C335.352 552.56 334.44 553.12 333.96 553.44L334.456 554.352C334.728 554.192 335.544 553.68 336.824 553.68C338.152 553.68 338.904 554.192 338.904 555.888C338.904 558.352 333.96 562.56 333.576 562.96V564H340.888Z" fill="black"/>
<path d="M556.024 561.04C556.024 559.296 554.6 558.288 553.4 557.984C554.28 557.728 555.496 556.736 555.496 555.2C555.496 553.456 554.232 552.56 552.392 552.56C551.304 552.56 550.52 552.848 550.024 553.072L550.408 554C550.408 554 551.24 553.648 552.328 553.648C553.352 553.648 554.28 554.032 554.28 555.312C554.28 556.56 553.064 557.472 551.672 557.584V558.64C553.464 558.752 554.776 559.584 554.776 561.056C554.776 562.784 553.496 563.008 552.216 563.008C551.096 563.008 550.184 562.752 549.784 562.624L549.48 563.68C549.48 563.68 550.488 564.144 552.376 564.144C554.424 564.144 556.024 563.392 556.024 561.04Z" fill="black"/>
</svg>
